icons/op-export-xls-24.svg

<svg width="24" height="24" viewBox="0 0 24 24" fill="none" xmlns="http://www.w3.org/2000/svg">
<path d="M11.269 14.6562H10.7817C10.7208 14.6562 10.6904 14.6875 10.6599 14.7188L10.0812 15.6875C10.0508 15.6875 10.0508 15.7188 10.0508 15.7188C10.0508 15.75 10.0203 15.75 10.0203 15.7812L9.38071 14.7188C9.38071 14.6875 9.35025 14.6875 9.35025 14.6875C9.3198 14.6562 9.28934 14.6562 9.25888 14.6562H8.74112L9.62437 16.0625L8.71066 17.5625H9.19797C9.22843 17.5625 9.25888 17.5312 9.25888 17.5312L9.3198 17.4688L9.95939 16.4375V16.4062C9.98985 16.375 9.98985 16.375 9.98985 16.3438L10.6294 17.4688C10.6599 17.4688 10.6599 17.5 10.6904 17.5312C10.7208 17.5312 10.7513 17.5625 10.7817 17.5625H11.2995L10.3553 16.0312L11.269 14.6562ZM12.1218 14.6562H11.6041V17.5625H13.2487V17.0938H12.1218V14.6562ZM15.2589 16.3438C15.2284 16.25 15.1675 16.1875 15.1066 16.125C15.0457 16.0625 14.9848 16.0312 14.8934 15.9688C14.8325 15.9375 14.7411 15.9062 14.6497 15.875C14.5888 15.8438 14.4975 15.8438 14.4365 15.8125C14.3452 15.7812 14.2843 15.75 14.2234 15.7188C14.1624 15.6875 14.1015 15.6562 14.0711 15.5938C14.0406 15.5625 14.0102 15.5 14.0102 15.4375C14.0102 15.375 14.0406 15.3125 14.0406 15.2812C14.0711 15.25 14.1015 15.1875 14.132 15.1562C14.1624 15.125 14.2234 15.125 14.2538 15.0938C14.3147 15.0625 14.3756 15.0625 14.467 15.0625C14.5279 15.0625 14.5888 15.0625 14.6497 15.0938C14.7107 15.125 14.7716 15.1562 14.802 15.1562C14.8629 15.1875 14.8934 15.2188 14.9239 15.2188C14.9543 15.25 14.9848 15.25 15.0152 15.25H15.0761C15.1066 15.2188 15.1371 15.2188 15.1371 15.1875L15.2589 14.9375C15.1675 14.8438 15.0457 14.75 14.8934 14.7188C14.7716 14.6562 14.6193 14.625 14.4365 14.625C14.2843 14.625 14.1624 14.6562 14.0406 14.6875C13.9492 14.75 13.8274 14.8125 13.7665 14.875C13.6751 14.9688 13.6142 15.0625 13.5838 15.1562C13.5533 15.25 13.5228 15.3438 13.5228 15.4688C13.5228 15.5938 13.5533 15.6875 13.5838 15.7812C13.6142 15.875 13.6751 15.9375 13.736 16C13.797 16.0625 13.8579 16.125 13.9188 16.1562C14.0102 16.1875 14.1015 16.2188 14.1624 16.25C14.2538 16.2812 14.3452 16.3125 14.4061 16.3125C14.4975 16.3438 14.5584 16.375 14.6193 16.4062C14.6802 16.4375 14.7411 16.5 14.7716 16.5312C14.802 16.5938 14.8325 16.6562 14.8325 16.7188C14.8325 16.8438 14.7716 16.9688 14.7107 17.0312C14.6193 17.0938 14.4975 17.125 14.3452 17.125C14.2538 17.125 14.1624 17.125 14.1015 17.0938L13.9188 17C13.8579 16.9688 13.8274 16.9375 13.797 16.9062C13.736 16.875 13.7056 16.875 13.6751 16.875C13.6447 16.875 13.6447 16.875 13.6142 16.9062C13.5838 16.9062 13.5838 16.9375 13.5533 16.9375L13.401 17.1875C13.4619 17.25 13.5228 17.3125 13.5838 17.3438C13.6751 17.4062 13.736 17.4375 13.8274 17.4688C13.8883 17.5 13.9797 17.5312 14.0711 17.5625C14.1624 17.5625 14.2538 17.5938 14.3452 17.5938C14.4975 17.5938 14.6193 17.5625 14.7411 17.5C14.8629 17.4688 14.9848 17.4062 15.0761 17.3125C15.1371 17.2188 15.198 17.125 15.2589 17C15.2893 16.9062 15.3198 16.7812 15.3198 16.6562C15.3198 16.5312 15.2893 16.4375 15.2589 16.3438ZM18 7.6875L14.3756 4H6V20H18V7.6875ZM7.40102 18.5625V5.4375H13.797L16.599 8.3125V18.5625H7.40102Z" fill="black"/>
</svg>

<svg xmlns="http://www.w3.org/2000/svg" width="24" height="24" viewBox="0 0 24 24"><path d="M11.269 14.656h-.487c-.061 0-.092.032-.122.063l-.579.969c-.03 0-.03.031-.03.031 0 .031-.031.031-.031.062l-.639-1.062c0-.031-.031-.031-.031-.031-.03-.032-.061-.032-.091-.032h-.518l.883 1.406-.913 1.5h.487c.03 0 .061-.031.061-.031l.061-.062.639-1.031v-.032c.031-.031.031-.031.031-.062l.639 1.125c.031 0 .031.031.061.062.031 0 .061.031.092.031h.518l-.945-1.531.914-1.375Zm.853 0h-.518v2.906h1.645v-.468h-1.127v-2.438Zm3.137 1.688a.567.567 0 0 0-.152-.219c-.061-.063-.122-.094-.214-.156a2.08 2.08 0 0 0-.243-.094c-.061-.031-.152-.031-.213-.063-.092-.031-.153-.062-.214-.093s-.122-.063-.152-.125a.247.247 0 0 1-.061-.156c0-.063.031-.126.031-.157.03-.031.06-.093.091-.125.03-.031.091-.031.122-.062.061-.032.122-.032.213-.032a.37.37 0 0 1 .183.032.514.514 0 0 0 .152.062c.061.032.091.063.122.063.03.031.061.031.091.031h.061c.031-.031.061-.031.061-.062l.122-.25a.721.721 0 0 0-.366-.219.985.985 0 0 0-.456-.094c-.153 0-.275.031-.396.063-.092.062-.214.124-.274.187a.727.727 0 0 0-.183.281.936.936 0 0 0-.061.313c0 .125.03.219.061.312a.55.55 0 0 0 .152.219c.061.062.122.125.183.156.091.032.182.063.243.094.092.031.183.062.244.062.092.032.152.063.213.094.061.032.122.094.153.125.03.063.06.125.06.188a.48.48 0 0 1-.121.312.635.635 0 0 1-.366.094c-.091 0-.183 0-.244-.031L13.919 17a.4.4 0 0 1-.122-.094c-.061-.031-.091-.031-.122-.031-.03 0-.03 0-.061.031-.03 0-.03.032-.061.032l-.152.25a.845.845 0 0 0 .183.156.907.907 0 0 0 .243.125c.061.031.153.062.244.093.091 0 .183.032.274.032a.83.83 0 0 0 .396-.094.715.715 0 0 0 .335-.188c.061-.093.122-.187.183-.312.03-.094.061-.219.061-.344 0-.125-.031-.218-.061-.312ZM18 7.688 14.376 4H6v16h12V7.688ZM7.401 18.562V5.438h6.396l2.802 2.874v10.25H7.401Z"/></svg>
